X: 123
T: Miss Proud's Reel
R: reel
M: C|
L: 1/8
Z: 2011 John Chambers <jc:trillian.mit.edu>
B: Abraham Mackintosh "A Collection of Strathspeys, Reels, Jigs &c.", Newcastle, after 1797, p.12
F: http://imslp.info/files/imglnks/usimg/a/a8/IMSLP80796-PMLP164326-Abraham_Mackintosh_coll.pdf
K: G
V: 1
   c | (B>cd)c BGgd | BcdB A=FcA | B>cdc BGge | dBcA G3 :|
|: c | BGBd A=FAc | BGBd gedc | BGBd A=FAc | B/c/d c/B/A G3 :|
|: c | B/c/d dd ddgb | A/B/c cc ccfa | B/c/d dd ddgb | a/g/f g/f/e d3 :|
|: c | B/c/d BG A/B/c AF | GABc dgec | B/c/d BG A/B/c AF | GcBA G3 :|
V: 2 clef=bass middle=d
   z | g2g2  g2g2  | g2g2 =f2^f2 | g2g2  g2bc' | d'2d2 g2G :|
|: z | g2g2 =f2^f2 | g2g2  e2f2  | g2g2 =f2^f2 | g2d2  g2B :|
|: z | g2g2  g2g2  | f2a2  f2d2  | g2g2  g2g2  | a2A2  d2D :|
|: z | g2g2 ^f2f2  | g2g2  b2c'2 | g2g2  f2dc  | Bcd2  g2G :|

%%sep 2 1 500

